_site/images/homepage/legal.svg

<svg fill="none" height="80" viewBox="0 0 80 80" width="80" xmlns="http://www.w3.org/2000/svg"><rect fill="#00b6ab" height="80" rx="25" width="80"/><g fill="#fff"><path d="m34.5414 31.6205h9.5892c.5261 0 .9526-.4265.9526-.9526s-.4265-.9526-.9526-.9526h-9.5892c-.5261 0-.9525.4265-.9525.9526s.4264.9526.9525.9526z"/><path d="m51.6358 26.7421-2.7421 2.7421v-4.5316c0-.5262-.4264-.9526-.9525-.9526h-17.2732c-.2521 0-.4962.1015-.6738.2791l-5.7151 5.7151c-.1806.1806-.2791.4262-.2791.6738v21.0834c0 2.6263 2.1366 4.7629 4.7628 4.7629h19.1784c2.6262 0 4.7628-2.1366 4.7628-4.7629v-1.9051c0-.5261-.4264-.9526-.9526-.9526h-2.8577v-11.3266l6.7836-6.7835c1.1141-1.1143 1.1141-2.9272 0-4.0415-1.1168-1.1168-2.9244-1.1168-4.0415 0zm-21.9204.5103v2.463h-2.463zm1.9051 22.5939v1.9051c0 1.5757-1.282 2.8577-2.8577 2.8577s-2.8577-1.282-2.8577-2.8577c0-.3495 0-19.3626 0-20.1309h4.7629c.5261 0 .9525-.4264.9525-.9525v-4.7629h15.3681v5.4842l-2.1363 2.1364h-16.0895c-.5261 0-.9525.4264-.9525.9525 0 .5262.4264.9526.9525.9526h14.1843l-1.9051 1.9051h-12.2792c-.5261 0-.9525.4265-.9525.9526s.4264.9526.9525.9526h10.3741l-1.0203 1.0203c-.1044.1046-.1833.2319-.23.3723l-.1709.5125h-8.9529c-.5261 0-.9525.4264-.9525.9526 0 .5261.4264.9525.9525.9525h8.3179l-.4701 1.4105-.4949.4947h-7.3529c-.5261 0-.9525.4264-.9525.9525 0 .5262.4264.9526.9525.9526h7.6154c.3063 0 .5556-.0288.8057-.2791l.7737-.7737 3.8281-1.276c.1402-.0467.2677-.1255.3724-.23l4.8305-4.8305v9.4214h-14.4155c-.5261 0-.9526.4265-.9526.9526zm10.3262-8.0266-.9769.9769-2.0207.6737.6737-2.0207.9767-.9769zm8.8522 8.9792v.9525c0 1.5757-1.282 2.8577-2.8577 2.8577h-15.3703c.599-.7965.9548-1.7865.9548-2.8577v-.9525zm1.5102-19.3416-9.0152 9.0154-1.3472-1.3472 9.0151-9.0152zm2.021-2.021-.674.674-1.347-1.347.6737-.674c.3716-.3713.9759-.3713 1.3473 0 .3713.3714.3713.9757 0 1.347z"/></g></svg>

<svg width="80" height="80" viewBox="0 0 80 80" fill="none" xmlns="http://www.w3.org/2000/svg">
<rect width="80" height="80" rx="25" fill="#00B6AB"/>
<path d="M34.5414 31.6205H44.1306C44.6567 31.6205 45.0832 31.194 45.0832 30.6679C45.0832 30.1418 44.6567 29.7153 44.1306 29.7153H34.5414C34.0153 29.7153 33.5889 30.1418 33.5889 30.6679C33.5889 31.194 34.0153 31.6205 34.5414 31.6205Z" fill="white"/>
<path d="M51.6358 26.7421L48.8937 29.4842V24.9526C48.8937 24.4264 48.4673 24 47.9412 24H30.668C30.4159 24 30.1718 24.1015 29.9942 24.2791L24.2791 29.9942C24.0985 30.1748 24 30.4204 24 30.668V51.7514C24 54.3777 26.1366 56.5143 28.7628 56.5143H47.9412C50.5674 56.5143 52.704 54.3777 52.704 51.7514V49.8463C52.704 49.3202 52.2776 48.8937 51.7514 48.8937H48.8937V37.5671L55.6773 30.7836C56.7914 29.6693 56.7914 27.8564 55.6773 26.7421C54.5605 25.6253 52.7529 25.6253 51.6358 26.7421ZM29.7154 27.2524V29.7154H27.2524L29.7154 27.2524ZM31.6205 49.8463V51.7514C31.6205 53.3271 30.3385 54.6091 28.7628 54.6091C27.1871 54.6091 25.9051 53.3271 25.9051 51.7514C25.9051 51.4019 25.9051 32.3888 25.9051 31.6205H30.668C31.1941 31.6205 31.6205 31.1941 31.6205 30.668V25.9051H46.9886V31.3893L44.8523 33.5257H28.7628C28.2367 33.5257 27.8103 33.9521 27.8103 34.4782C27.8103 35.0044 28.2367 35.4308 28.7628 35.4308H42.9471L41.042 37.3359H28.7628C28.2367 37.3359 27.8103 37.7624 27.8103 38.2885C27.8103 38.8146 28.2367 39.2411 28.7628 39.2411H39.1369L38.1166 40.2614C38.0122 40.366 37.9333 40.4933 37.8866 40.6337L37.7157 41.1462H28.7628C28.2367 41.1462 27.8103 41.5726 27.8103 42.0988C27.8103 42.6249 28.2367 43.0513 28.7628 43.0513H37.0807L36.6106 44.4618L36.1157 44.9565H28.7628C28.2367 44.9565 27.8103 45.3829 27.8103 45.909C27.8103 46.4352 28.2367 46.8616 28.7628 46.8616H36.3782C36.6845 46.8616 36.9338 46.8328 37.1839 46.5825L37.9576 45.8088L41.7857 44.5328C41.9259 44.4861 42.0534 44.4073 42.1581 44.3028L46.9886 39.4723V48.8937H32.5731C32.047 48.8937 31.6205 49.3202 31.6205 49.8463ZM41.9467 41.8197L40.9698 42.7966L38.9491 43.4703L39.6228 41.4496L40.5995 40.4727L41.9467 41.8197ZM50.7989 50.7989V51.7514C50.7989 53.3271 49.5169 54.6091 47.9412 54.6091H32.5709C33.1699 53.8126 33.5257 52.8226 33.5257 51.7514V50.7989H50.7989ZM52.3091 31.4573L43.2939 40.4727L41.9467 39.1255L50.9618 30.1103L52.3091 31.4573ZM54.3301 29.4363L53.6561 30.1103L52.3091 28.7633L52.9828 28.0893C53.3544 27.718 53.9587 27.718 54.3301 28.0893C54.7014 28.4607 54.7014 29.065 54.3301 29.4363Z" fill="white"/>
</svg>
